X: 08017
T: The BUFFUM'S REEL
C: Bob McQuillen 27 Jn 91
B: Bob's Note Book 8 #17
%R: reel
Z: 2021 John Chambers <jc:trillian.mit.edu>
M: C
L: 1/8
K: G
de \
| "G"gdBd edBd | "C"cedc "G"BGBc | "G"dBdg "C"eceg | "A7"fage "D7"d2ef |\
| "G"gdBd edBd | "C"cedc "G"BGBc | "G"dBdg "C"eceg | "D7"fgaf "G"g2 :|
K: D
|: fg \
| "D"abaf "A7"g2ef | "A7"gbag "D"f2df | "G6"gaba gfed | "A7"c2A2 A2FA |\
| BAGB "F#"cABc | "Bm"dfgf "A6"ecde | "A7"faba gecd | "D"e2d2 d2 :|
%%begintext align
%% As they say, "You ain't
%% seen nuthin' yet!" until you've seen the 3 brothers
%% Todd, Scott, and Derek, AKA "Little Buff", all former
%% school boys of mine, along with their dad, Dick Buffum,
%% out on the field playing softball on the same team at the same
%% time. Back in 1989, I saw them come from 10 runs behind to win
%% a championship game in the last 2 innings! They were AWESOME!
%%endtext

%%sep 1 1 500

%%sep 1 1 500

